X: 41714
T: Valley Of Knockanure, The
R: waltz
M: 3/4
K: Bminor
M:6/8
d/e/|"Bm" f2 f "A" e2 ~f/e/|"Bm" d2 B "A" e2 d/B/|"D" AFA "B" B2 B|B3 z2 F|
"Bm" B2 B d2 e|f>ef "A" a2 f|e2 e "D" d2 e|"Bm" f3 z2 F|
"Bm" B2 B d2 e|f>e (f/g/) "A" a2 f|e2 e "D" d2 e|"Bm" f3 z2 e/f/|
"Bm" f2 ~f "A" e2 f/e/|"Bm" d2 B "A" e2 d/B/|"D" AFA "Bm" B2 B|B3 z2:|

